X:320
T: WIE STEHT IHR ALLE HIE
N: E0934A
O: Europa, Mitteleuropa, Deutschland
R: Tanz - Lied, Reigen, geistlich
M: 4/4
L: 1/4
K: G
G2 | BABc | d3e | d2B2 | G2
G2 | BABc | d3e | d2B2 | G2
d2 | B2A2 | G2D2 | ABcB | G2
d2 | B2A2 | G2D2 | ABcB | G2

